src/pos-icons/nintendo-wii.svg

<svg height="24" viewBox="0 0 24 24" width="24" xmlns="http://www.w3.org/2000/svg"><path d="m17.84 16.94h-1.87v-6.15h1.87zm.16-8.36c0 .61-.5 1.11-1.1 1.11a1.11 1.11 0 0 1 -1.11-1.11c0-.62.5-1.12 1.11-1.12.6 0 1.1.5 1.1 1.12m3.82 8.36h-1.88v-6.15h1.88zm.18-8.36c0 .61-.5 1.11-1.12 1.11a1.11 1.11 0 0 1 -1.11-1.11c0-.62.5-1.12 1.11-1.12.62 0 1.12.5 1.12 1.12m-9.1-.53h2l-2.12 7.45s-.28 1.54-1.5 1.54c-1.21 0-1.49-1.54-1.49-1.54l-1.34-4.86-1.34 4.86s-.29 1.54-1.5 1.54-1.49-1.54-1.49-1.54l-2.12-7.45h2l1.72 6.62 1.39-5.37c.32-1.35 1.34-1.33 1.34-1.33s1.02-.02 1.34 1.33l1.38 5.37z"/></svg>

<?xml version="1.0" encoding="UTF-8"?><!DOCTYPE svg PUBLIC "-//W3C//DTD SVG 1.1//EN" "http://www.w3.org/Graphics/SVG/1.1/DTD/svg11.dtd"><svg xmlns="http://www.w3.org/2000/svg" xmlns:xlink="http://www.w3.org/1999/xlink" version="1.1" id="mdi-nintendo-wii" width="24" height="24" viewBox="0 0 24 24"><path d="M17.84,16.94H15.97V10.79H17.84V16.94M18,8.58C18,9.19 17.5,9.69 16.9,9.69A1.11,1.11 0 0,1 15.79,8.58C15.79,7.96 16.29,7.46 16.9,7.46C17.5,7.46 18,7.96 18,8.58M21.82,16.94H19.94V10.79H21.82V16.94M22,8.58C22,9.19 21.5,9.69 20.88,9.69A1.11,1.11 0 0,1 19.77,8.58C19.77,7.96 20.27,7.46 20.88,7.46C21.5,7.46 22,7.96 22,8.58M12.9,8.05H14.9L12.78,15.5C12.78,15.5 12.5,17.04 11.28,17.04C10.07,17.04 9.79,15.5 9.79,15.5L8.45,10.64L7.11,15.5C7.11,15.5 6.82,17.04 5.61,17.04C4.4,17.04 4.12,15.5 4.12,15.5L2,8.05H4L5.72,14.67L7.11,9.3C7.43,7.95 8.45,7.97 8.45,7.97C8.45,7.97 9.47,7.95 9.79,9.3L11.17,14.67L12.9,8.05Z" /></svg>
